X:304
T: ES WOLLT EIN JUNGFER ZU TANZE GEHN
N: E0174A
O: Europa, Mitteleuropa, Deutschland, Altmark
R: erzaehlendes Volks - Lied, Sage, Pflanzen - Maerchen, Moral - Lied
M: 3/4
L: 1/8
K: G
D | GGA2G2 | EED2z
D | GAB2B2 | cBA2z
B | ccc2e2 | dcB2z
d | ABcBA2 | EAA2z
B | ccc2e2 | dcB2z
d | ABcBA2 | EAA2z

@@@ Tune index: 3954
